docs/img/telegram.svg

<svg width="22" height="19" viewBox="0 0 22 19" fill="none" xmlns="http://www.w3.org/2000/svg">
<path d="M8.67381 12.0683L8.33352 17.1664C8.83352 17.1664 9.05444 16.9377 9.33352 16.6664L11.7358 14.3305L16.7335 18.0229C17.6533 18.5304 18.3171 18.2676 18.5462 17.169L21.827 1.70849C22.1629 0.361793 21.3137 -0.249007 20.4338 0.15046L1.16879 7.57896C-0.146224 8.10641 -0.138557 8.84006 0.929092 9.16696L5.87292 10.71L17.3184 3.48918C17.8587 3.16153 18.3546 3.33768 17.9476 3.69891L8.67352 12.0681L8.67381 12.0683Z" fill="#BB8C5F"/>
</svg>

<svg width="22" height="19" fill="none" xmlns="http://www.w3.org/2000/svg"><path d="m8.674 12.068-.34 5.098c.5 0 .72-.228 1-.5l2.402-2.335 4.997 3.692c.92.507 1.584.245 1.813-.854l3.281-15.46C22.163.361 21.314-.25 20.434.15L1.169 7.58C-.146 8.106-.14 8.84.929 9.167l4.944 1.543 11.445-7.22c.54-.328 1.037-.152.63.209l-9.274 8.37Z" fill="#BB8C5F"/></svg>
